X: 1
T: Leitrim Quickstep
M: 9/8
L: 1/8
R: slip jig
K: Gmaj
D|:Gzg dBG GFG |EFG A2G FED|Gzg dBG GFG |EFG AGF G2D:|
|:AFD AFD DEF|GAB c3 BAG|AFD AFD DEF|GAB cAF Gz2:|
